X: 1462
T: Anderson Family Fling, The
R: strathspey
M: 4/4
K: Gmajor
|:d>c|B2 (3GBd g2 (3fed|e>cd<B A2 d>c|B2 (3B^cd g2- g>d|e>g (3fga g2-:|
g>a|b2 (3agf g>fe<d|e<cd>B A2 (3fga|b2. a2. g<fe<d|e2 (3fga g2- g>a|
b>gd>g a>fd>f|g>ef>d e2 (3cBA|(3BAG (3 B^cd g>de<d|e>g (3fga g2||

